X: 784
T: Gel Beyâtî Arabân Bûselik`le
C: Ahmet Avni Konuk
O: Turkey
F: http://compmusic.upf.edu/node/140
N: beyati-arabanbuselik--kupe--agiraksak--gel--ahmet_avni_konuk
N: makam= beyati-arabanbuselik
N: form= kupe
N: usul= agiraksak = 9/4
M: 9/4
L: 1/16
K: C _1/4B _7/8e ^f 
Q: 1/4=60
%%MIDI tuningsystem comma53
g4 a4 z2g4a2 a8 a2_b2 a2b2 a2g2  | \
w:  Ah  *  gel  Be yâ tî   | 
a2_b2 a2g2 c'4 b2a2 a2g2 g2b2 a2g2 ^3/4f3_3/4e f2e2  | 
w:  A *  *  *  *  ra *  ban   | 
d8 z2d4d2 d2_2/4e2 d2e2 g2^3/4f2 g2a2 g4  | \
w:  *  Bû se lik *  *  *  le   | 
a2_b2 a2b2 c'4 b2a2 a2g2 g2^3/4f2 g8 z4  | 
w:  ver  *  *  *  *  ka *  rar    | 
z8 z2g4_b2 a2g2 g2^3/4f2 g3f e2d2 c4  | \
w:  Mut rı bâ  *  *  *  bu   | 
d2e2 d2c2 ^3/4f4 e2d2 d2c2 c2_2/4B2 c6B2 e2dc  | 
w:  im *  *  *  *  ti *  zâc_ *  *  *  ı   | 
c8 z2c4c2 c3=B c2d2 =e2d2 c2B2 A4  | \
w:  *  hoş  da  bir  *  *  *  zev  | 
=B2c2 B2c2 d4 c2B2 B2A2 A2^G2 A8 z4  | 
w:  ke  *  *  *  *  ya *  rar    | 
|


